X:17727
T:Tretur fr Hillestrup, Falster
S:HO
R:Other
O:Denmark
M:2/4
K:D
d2dc dAFA | DFAd fedf | g2gf gfed | cABc d2z2::\
f2ef gfed | c2a2 f2d2 | f2ef gfed | cABc d2z2::\
A2d2 F2EF | G2B2 B2AG | FABc d2AG | FAGE D2z2\
:|**
